image/ection-twacs-item-img7.svg

<svg fill="none" height="29" viewBox="0 0 29 29" width="29" xmlns="http://www.w3.org/2000/svg"><g fill="#4b4b4b"><path d="m11.6669 4h2.6667c.5523 0 1 .44771 1 1 0 .55228-.4477 1-1 1h-2.6667c-.5523 0-1-.44772-1-1s.4477-1 1-1z"/><path d="m11.3244 10.5872c.0754.5471-.3069 1.0518-.854 1.1272l-.0016.0003-.0018.0002-.004.0005-.0099.0013-.0272.0032c-.0214.0024-.0491.0052-.0827.008-.0671.0056-.1582.0112-.2687.0132-.21983.0039-.52354-.0062-.87296-.0619-.69329-.1104-1.62219-.41-2.4033-1.1911-.78111-.78109-1.0807-1.71-1.19111-2.40329-.05564-.34941-.06579-.65312-.06184-.87297.00199-.11053.00757-.20159.01316-.26869.00279-.0336.0056-.06134.00799-.08269l.00321-.02719.00127-.00991c.07544-.54711.58111-.93685 1.12822-.8614.54465.07511.92602.57559.85501 1.11985-.04844.88347.41382 2.65039 2.65035 2.65039.5443-.07101 1.0448.3104 1.1199.855z"/><path d="m12.9598 8.95956c.3905-.39052 1.0237-.39052 1.4142 0l1.3334 1.33334c.3905.3905.3905 1.0237 0 1.4142-.3906.3905-1.0237.3905-1.4142 0l-1.3334-1.3333c-.3905-.39055-.3905-1.02372 0-1.41424z"/><path d="m18.6669 14.3333c0-.5523-.4477-1-1-1s-1 .4477-1 1v2.6667c0 .5523.4477 1 1 1s1-.4477 1-1z"/><path d="m21.6303 21.7542-.0019-.0016-.0019-.0017-.0043-.0038-.0097-.0087-.0242-.0224c-.0182-.0171-.0403-.0387-.0657-.0648-.0506-.0521-.1146-.1226-.1854-.2117-.1413-.1777-.3129-.433-.46-.7667-.301-.6827-.4774-1.6462-.1542-2.8527.3233-1.2065.9578-1.9528 1.5599-2.3936.2942-.2154.5705-.3507.7818-.4339.1059-.0418.1965-.0708.2664-.0906.035-.0099.065-.0176.0893-.0233l.0321-.0073.0128-.0027.0056-.0011.0025-.0005s.0024-.0005.1936.9811l-.1912-.9816c.5421-.1056 1.0672.2483 1.1728.7904.1042.535-.2391 1.0535-.7693 1.1684l-.0035.001c-.0118.0033-.039.0116-.0778.0269-.0781.0308-.1986.0881-.3337.187-.2565.1878-.611.5569-.8094 1.2974s-.0759 1.2374.0523 1.5283c.0676.1532.1432.2631.1955.3288.0259.0327.0454.0535.0539.0622l.0025.0026c.4017.3647.4398.9853.082 1.3966-.3625.4166-.9942.4605-1.4108.098z"/><path d="m5.80961 12.7159c.21128-.5103-.0311-1.0952-.54137-1.3065s-1.09521.0311-1.30649.5414l-.55208 1.3333c-.21129.5103.03109 1.0952.54136 1.3065s1.09521-.0311 1.30649-.5414z"/><path d="m17.7493 8.88689c-.5443.07102-1.0448-.31035-1.1199-.855-.0754-.54711.3143-1.05278.8614-1.12823 0 0 .0862-.00967.1198-.01247.0671-.00558.1582-.01117.2687-.01315.2198-.00395.5235.0062.873.06184.6932.1104 1.6221.40999 2.4033 1.1911.7811.78111 1.0807 1.71002 1.1911 2.40332.0556.3494.0658.6531.0618.873-.002.1105-.0076.2015-.0132.2686-.0027.0336-.0056.0614-.0079.0827-.0755.5471-.5856.974-1.1327.8985-.5447-.0751-.9261-.5755-.8551-1.1198 0-2.23683-1.7669-2.69895-2.6503-2.65041z"/><path d="m16.8421 21.24c-.4359-.3391-1.0642-.2606-1.4033.1753s-.2606 1.0642.1753 1.4033l2.1049 1.6373c.4359.3391 1.0642.2606 1.4033-.1753s.2606-1.0642-.1754-1.4033z"/><g clip-rule="evenodd" fill-rule="evenodd"><path d="m10.3333 13.3333c-2.76139 0-4.99997 2.2386-4.99997 5 0 2.7615 2.23858 5 4.99997 5 2.7615 0 5-2.2385 5-5 0-2.7614-2.2385-5-5-5zm-2.99997 5c0-1.6568 1.34315-3 2.99997-3 1.6569 0 3 1.3432 3 3 0 1.6569-1.3431 3-3 3-1.65682 0-2.99997-1.3431-2.99997-3z"/><path d="m0 14.3333c0-7.91605 6.41725-14.3333 14.3333-14.3333 7.9161 0 14.3334 6.41725 14.3334 14.3333 0 7.9161-6.4173 14.3334-14.3334 14.3334-7.91605 0-14.3333-6.4173-14.3333-14.3334zm14.3333-12.3333c-6.81148 0-12.3333 5.52182-12.3333 12.3333 0 6.8115 5.52182 12.3334 12.3333 12.3334 6.8115 0 12.3334-5.5219 12.3334-12.3334 0-6.81148-5.5219-12.3333-12.3334-12.3333z"/></g></g></svg>

<svg width="29" height="29" viewBox="0 0 29 29" fill="none" xmlns="http://www.w3.org/2000/svg">
<path d="M11.6669 4H14.3336C14.8859 4 15.3336 4.44771 15.3336 5C15.3336 5.55228 14.8859 6 14.3336 6H11.6669C11.1146 6 10.6669 5.55228 10.6669 5C10.6669 4.44772 11.1146 4 11.6669 4Z" fill="#4B4B4B"/>
<path d="M11.3244 10.5872C11.3998 11.1343 11.0175 11.639 10.4704 11.7144L10.4688 11.7147L10.467 11.7149L10.463 11.7154L10.4531 11.7167L10.4259 11.7199C10.4045 11.7223 10.3768 11.7251 10.3432 11.7279C10.2761 11.7335 10.185 11.7391 10.0745 11.7411C9.85467 11.745 9.55096 11.7349 9.20154 11.6792C8.50825 11.5688 7.57935 11.2692 6.79824 10.4881C6.01713 9.70701 5.71754 8.7781 5.60713 8.08481C5.55149 7.7354 5.54134 7.43169 5.54529 7.21184C5.54728 7.10131 5.55286 7.01025 5.55845 6.94315C5.56124 6.90955 5.56405 6.88181 5.56644 6.86046L5.56965 6.83327L5.57092 6.82336C5.64636 6.27625 6.15203 5.88651 6.69914 5.96196C7.24379 6.03707 7.62516 6.53755 7.55415 7.08181C7.50571 7.96528 7.96797 9.7322 10.2045 9.7322C10.7488 9.66119 11.2493 10.0426 11.3244 10.5872Z" fill="#4B4B4B"/>
<path d="M12.9598 8.95956C13.3503 8.56904 13.9835 8.56904 14.374 8.95956L15.7074 10.2929C16.0979 10.6834 16.0979 11.3166 15.7074 11.7071C15.3168 12.0976 14.6837 12.0976 14.2932 11.7071L12.9598 10.3738C12.5693 9.98325 12.5693 9.35008 12.9598 8.95956Z" fill="#4B4B4B"/>
<path d="M18.6669 14.3333C18.6669 13.781 18.2192 13.3333 17.6669 13.3333C17.1146 13.3333 16.6669 13.781 16.6669 14.3333V17C16.6669 17.5523 17.1146 18 17.6669 18C18.2192 18 18.6669 17.5523 18.6669 17V14.3333Z" fill="#4B4B4B"/>
<path d="M21.6303 21.7542L21.6284 21.7526L21.6265 21.7509L21.6222 21.7471L21.6125 21.7384L21.5883 21.716C21.5701 21.6989 21.548 21.6773 21.5226 21.6512C21.472 21.5991 21.408 21.5286 21.3372 21.4395C21.1959 21.2618 21.0243 21.0065 20.8772 20.6728C20.5762 19.9901 20.3998 19.0266 20.723 17.8201C21.0463 16.6136 21.6808 15.8673 22.2829 15.4265C22.5771 15.2111 22.8534 15.0758 23.0647 14.9926C23.1706 14.9508 23.2612 14.9218 23.3311 14.902C23.3661 14.8921 23.3961 14.8844 23.4204 14.8787L23.4525 14.8714L23.4653 14.8687L23.4709 14.8676L23.4734 14.8671C23.4734 14.8671 23.4758 14.8666 23.667 15.8482L23.4758 14.8666C24.0179 14.761 24.543 15.1149 24.6486 15.657C24.7528 16.192 24.4095 16.7105 23.8793 16.8254L23.8758 16.8264C23.864 16.8297 23.8368 16.838 23.798 16.8533C23.7199 16.8841 23.5994 16.9414 23.4643 17.0403C23.2078 17.2281 22.8533 17.5972 22.6549 18.3377C22.4565 19.0782 22.579 19.5751 22.7072 19.866C22.7748 20.0192 22.8504 20.1291 22.9027 20.1948C22.9286 20.2275 22.9481 20.2483 22.9566 20.257L22.9591 20.2596C23.3608 20.6243 23.3989 21.2449 23.0411 21.6562C22.6786 22.0728 22.0469 22.1167 21.6303 21.7542Z" fill="#4B4B4B"/>
<path d="M5.80961 12.7159C6.02089 12.2056 5.77851 11.6207 5.26824 11.4094C4.75797 11.1981 4.17303 11.4405 3.96175 11.9508L3.40967 13.2841C3.19838 13.7944 3.44076 14.3793 3.95103 14.5906C4.4613 14.8019 5.04624 14.5595 5.25752 14.0492L5.80961 12.7159Z" fill="#4B4B4B"/>
<path d="M17.7493 8.88689C17.205 8.95791 16.7045 8.57654 16.6294 8.03189C16.554 7.48478 16.9437 6.97911 17.4908 6.90366C17.4908 6.90366 17.577 6.89399 17.6106 6.89119C17.6777 6.88561 17.7688 6.88002 17.8793 6.87804C18.0991 6.87409 18.4028 6.88424 18.7523 6.93988C19.4455 7.05028 20.3744 7.34987 21.1556 8.13098C21.9367 8.91209 22.2363 9.841 22.3467 10.5343C22.4023 10.8837 22.4125 11.1874 22.4085 11.4073C22.4065 11.5178 22.4009 11.6088 22.3953 11.6759C22.3926 11.7095 22.3897 11.7373 22.3874 11.7586C22.3119 12.3057 21.8018 12.7326 21.2547 12.6571C20.71 12.582 20.3286 12.0816 20.3996 11.5373C20.3996 9.30047 18.6327 8.83835 17.7493 8.88689Z" fill="#4B4B4B"/>
<path d="M16.8421 21.24C16.4062 20.9009 15.7779 20.9794 15.4388 21.4153C15.0997 21.8512 15.1782 22.4795 15.6141 22.8186L17.719 24.4559C18.1549 24.795 18.7832 24.7165 19.1223 24.2806C19.4614 23.8447 19.3829 23.2164 18.9469 22.8773L16.8421 21.24Z" fill="#4B4B4B"/>
<path fill-rule="evenodd" clip-rule="evenodd" d="M10.3333 13.3333C7.57191 13.3333 5.33333 15.5719 5.33333 18.3333C5.33333 21.0948 7.57191 23.3333 10.3333 23.3333C13.0948 23.3333 15.3333 21.0948 15.3333 18.3333C15.3333 15.5719 13.0948 13.3333 10.3333 13.3333ZM7.33333 18.3333C7.33333 16.6765 8.67648 15.3333 10.3333 15.3333C11.9902 15.3333 13.3333 16.6765 13.3333 18.3333C13.3333 19.9902 11.9902 21.3333 10.3333 21.3333C8.67648 21.3333 7.33333 19.9902 7.33333 18.3333Z" fill="#4B4B4B"/>
<path fill-rule="evenodd" clip-rule="evenodd" d="M0 14.3333C0 6.41725 6.41725 0 14.3333 0C22.2494 0 28.6667 6.41725 28.6667 14.3333C28.6667 22.2494 22.2494 28.6667 14.3333 28.6667C6.41725 28.6667 0 22.2494 0 14.3333ZM14.3333 2C7.52182 2 2 7.52182 2 14.3333C2 21.1448 7.52182 26.6667 14.3333 26.6667C21.1448 26.6667 26.6667 21.1448 26.6667 14.3333C26.6667 7.52182 21.1448 2 14.3333 2Z" fill="#4B4B4B"/>
</svg>
